app/assets/puntdeur-dubbelkerend-enkelvoudig-links.svg

<svg data-name="Layer 1" xmlns="http://www.w3.org/2000/svg" width="168" height="480" viewBox="0 0 168 480">
    <title>
        puntdeur-dubbelkerend-enkelvoudig-links
    </title>
    <path d="M0 168h168v144H0z" fill="#d9ebf7"/>
    <path d="M24 312H0m0-144h24m144 144h-48m0-144h48" fill="none" stroke="#9fceea" stroke-miterlimit="10" stroke-width="3"/>
    <path d="M24 312h96v12H24zm96-144H24v-12h90z" fill="#d9ebf7"/>
    <path d="M114 156v6h6v6" fill="none" stroke="#9fceea" stroke-linecap="square" stroke-linejoin="round" stroke-width="3"/>
    <path d="M120 312H24v12h90z" fill="#d9ebf7"/>
    <path d="M119 318l-24-78H85l24 78z" fill="#ffb612" stroke="#000" stroke-miterlimit="10"/>
    <path d="M114 324v-6h6v-6" fill="none" stroke="#9fceea" stroke-linecap="square" stroke-linejoin="round" stroke-width="3"/>
    <path d="M24 312v12h90" fill="none" stroke="#7d7d7d" stroke-linecap="square" stroke-linejoin="round" stroke-width="3"/>
    <circle cx="114" cy="318" r="6" stroke="#474747" stroke-miterlimit="10" stroke-width="3"/>
    <path d="M150 318l-45-30" fill="#fff"/>
    <path d="M150 318l-45-30" fill="none" stroke="#fff" stroke-miterlimit="10" stroke-width="4"/>
    <circle cx="105" cy="288" r="3.3" transform="matrix(.55 -.83 .83 .55 -192.91 215.55)" fill="#fff"/>
    <path d="M150 318l-45-30" fill="none" stroke="#154573" stroke-miterlimit="10" stroke-width="2"/>
    <circle cx="150" cy="318" r="2.3" transform="rotate(-56.5 149.748 318.76)" fill="#154573"/>
    <circle cx="105" cy="288" r="2.3" transform="rotate(-56.3 104.925 288.006)" fill="#154573"/>
    <path d="M120 168H24v-12h90z" fill="#d9ebf7"/>
    <path d="M119 162l-24 78H85l24-78z" fill="#ffb612" stroke="#000" stroke-miterlimit="10"/>
    <path d="M114 156v6h6v6" fill="none" stroke="#9fceea" stroke-linecap="square" stroke-linejoin="round" stroke-width="3"/>
    <path d="M24 168v-12h90" fill="none" stroke="#7d7d7d" stroke-linecap="square" stroke-linejoin="round" stroke-width="3"/>
    <circle cx="114" cy="162" r="6" stroke="#474747" stroke-miterlimit="10" stroke-width="3"/>
    <path d="M150 162l-45 30" fill="#fff"/>
    <path d="M150 162l-45 30" fill="none" stroke="#fff" stroke-miterlimit="10" stroke-width="4"/>
    <circle cx="105" cy="192" r="3.3" fill="#fff"/>
    <path d="M150 162l-45 30" fill="none" stroke="#154573" stroke-miterlimit="10" stroke-width="2"/>
    <circle cx="150" cy="161.9" r="2.3" fill="#154573"/>
    <circle cx="105" cy="192" r="2.3" fill="#154573"/>
</svg>

<svg id="7fa3ce0f-68b4-4f2e-92c2-cc0190d535ac" data-name="Layer 1" xmlns="http://www.w3.org/2000/svg" width="168" height="480" viewBox="0 0 168 480">
  <title>puntdeur-dubbelkerend-enkelvoudig-links</title>
  <path d="M0,168H168V312H0Z" fill="#d9ebf7"/>
  <path d="M24,312H0M0,168H24M168,312H120m0-144h48" fill="none" stroke="#9fceea" stroke-miterlimit="10" stroke-width="3"/>
  <path d="M24,312h96v12H24Zm96-144H24V156h90Z" fill="#d9ebf7"/>
  <path d="M114,156v6h6v6" fill="none" stroke="#9fceea" stroke-linecap="square" stroke-linejoin="round" stroke-width="3"/>
  <path d="M120,312H24v12h90Z" fill="#d9ebf7"/>
  <path d="M119,318,95,240H85l24,78Z" fill="#ffb612" stroke="#000" stroke-miterlimit="10"/>
  <path d="M114,324v-6h6v-6" fill="none" stroke="#9fceea" stroke-linecap="square" stroke-linejoin="round" stroke-width="3"/>
  <path d="M24,312v12h90" fill="none" stroke="#7d7d7d" stroke-linecap="square" stroke-linejoin="round" stroke-width="3"/>
  <circle cx="114" cy="318" r="6" stroke="#474747" stroke-miterlimit="10" stroke-width="3"/>
  <path d="M150,318l-45-30" fill="#fff"/>
  <path d="M150,318l-45-30" fill="none" stroke="#fff" stroke-miterlimit="10" stroke-width="4"/>
  <circle cx="105" cy="288" r="3.3" transform="matrix(0.55, -0.83, 0.83, 0.55, -192.91, 215.55)" fill="#fff"/>
  <path d="M150,318l-45-30" fill="none" stroke="#154573" stroke-miterlimit="10" stroke-width="2"/>
  <circle cx="150" cy="318" r="2.3" transform="matrix(0.55, -0.83, 0.83, 0.55, -197.83, 266.36)" fill="#154573"/>
  <circle cx="105" cy="288" r="2.3" transform="translate(-192.9 215.5) rotate(-56.3)" fill="#154573"/>
  <path d="M120,168H24V156h90Z" fill="#d9ebf7"/>
  <path d="M119,162,95,240H85l24-78Z" fill="#ffb612" stroke="#000" stroke-miterlimit="10"/>
  <path d="M114,156v6h6v6" fill="none" stroke="#9fceea" stroke-linecap="square" stroke-linejoin="round" stroke-width="3"/>
  <path d="M24,168V156h90" fill="none" stroke="#7d7d7d" stroke-linecap="square" stroke-linejoin="round" stroke-width="3"/>
  <circle cx="114" cy="162" r="6" stroke="#474747" stroke-miterlimit="10" stroke-width="3"/>
  <path d="M150,162l-45,30" fill="#fff"/>
  <path d="M150,162l-45,30" fill="none" stroke="#fff" stroke-miterlimit="10" stroke-width="4"/>
  <circle cx="105" cy="192" r="3.3" fill="#fff"/>
  <path d="M150,162l-45,30" fill="none" stroke="#154573" stroke-miterlimit="10" stroke-width="2"/>
  <circle cx="150" cy="161.9" r="2.3" fill="#154573"/>
  <circle cx="105" cy="192" r="2.3" fill="#154573"/>
</svg>
